X:1
T:Funeral March
C:Chopin
Z:celestial
Q:70
M:4/4
L:1/8
K:C

A,2 A,-A,/2 A,/2 A,4 |A,2 A,-A,/2 A,/2 A,4 |A,2 A,-A,/2 A,2 C-C/2 B,/2 |B,-B,/2 A,/2 A,-A,/2 A,/2 A,4 |C2 C-C/2 C/2 C2 E-E/2 D/2 |D-D/2 C/2 C-C/2 C/2 C4 |A G F-F/2 E/2 E4 |A G F-F/2 E/2 E4 |A,2 A,-A,/2 A,2 C-C/2 B,/2 |B,-B,/2 A,/2 A,-A,/2 A,/2 A,4 |A G F-F/2 E/2 E4 |A G F-F/2 E/2 E4 |A2 A-A/2 A/2 A2 c-c/2 B/2 |B-B/2 A/2 A-A/2 A/2 A4 |A,2 A,-A,/2 A,2 C-C/2 B,/2 |B,-B,/2 A,/2 A,-A,/2 A,/2 A,4 |